X:273
T:The Tarbolton
R:reel
M:4/4
L:1/8
K:Edor
D|Eeed e2 BA|GBAF GFEF|Dddc d2 AF|GBAG FDDF|
Eeed efge|fedf edBA|GABG FGA=c|BGAF GE E :|
|gfef (3gfe be|gebe gfef|d2 fd adfd|ABAG FDDF|
(3GGG BG (3FFF AF|Eeef gfed|B2 dB AGFA|BGAF GE E :|

